assets/light/house-line-light.svg

<svg id="Flat" xmlns="http://www.w3.org/2000/svg" viewBox="0 0 256 256">
  <path d="M239.98828,210h-18V115.53882a14.03222,14.03222,0,0,0-4.582-10.35889L137.40039,32.44458a13.94491,13.94491,0,0,0-18.83594.001L38.57031,105.17969a14.02742,14.02742,0,0,0-4.582,10.35888V210h-18a6,6,0,0,0,0,12h224a6,6,0,1,0,0-12Zm-194-94.46143a2.00429,2.00429,0,0,1,.6543-1.48l79.99414-72.73437a1.99291,1.99291,0,0,1,2.6914-.00049L209.333,114.05786a2.00817,2.00817,0,0,1,.65527,1.481V210H157.98242V159.9917a14.01572,14.01572,0,0,0-14-14h-32a14.01573,14.01573,0,0,0-14,14V210H45.98828ZM145.98242,210h-36V159.9917a2.00245,2.00245,0,0,1,2-2h32a2.00245,2.00245,0,0,1,2,2Z"/>
</svg>

<svg xmlns="http://www.w3.org/2000/svg" viewBox="0 0 256 256"><path d="M240,210H222V115.5a13.9,13.9,0,0,0-4.6-10.3l-80-72.8a14.1,14.1,0,0,0-18.8,0l-80,72.8A13.9,13.9,0,0,0,34,115.5V210H16a6,6,0,0,0,0,12H240a6,6,0,0,0,0-12ZM46,115.5a1.8,1.8,0,0,1,.6-1.4l80-72.8a2,2,0,0,1,2.7,0l80,72.8a1.6,1.6,0,0,1,.7,1.4V210H158V160a14,14,0,0,0-14-14H112a14,14,0,0,0-14,14v50H46ZM146,210H110V160a2,2,0,0,1,2-2h32a2,2,0,0,1,2,2Z"/></svg>
